!!!COM: Mozart, Wolfgang Amadeus
!!!CDT: 1756/01/27/-1791/12/05/
!!!CNT: German
!!!OTL: Piano Sonata No. 8 in A minor
!!!SCT1: K<sup>1</sup> 310
!!!SCT2: K<sup>6</sup> 300d
!!!OMV: Mvmt. 3
!!!OMD: Presto
!!!ODT: 1778///
**kern	**kern	**dynam
*staff2	*staff1	*staff1/2
*>[A,B,B,C,C1,C,C2,D]	*>[A,B,B,C,C1,C,C2,D]	*>[A,B,B,C,C1,C,C2,D]
*>[A,B,C,C2,D]	*>[A,B,C,C2,D]	*>[A,B,C,C2,D]
*>A	*>A	*>A
*clefF4	*clefG2	*clefG2
*k[]	*k[]	*k[]
*a:	*a:	*a:
*M2/4	*M2/4	*M2/4
*MM160	*MM160	*MM160
=1-	=1-	=1-
*^	*^	*
8r	8r	(4.cc/	4.a\	p
(8A/L	4.A\	.	.	.
8e/	.	.	.	.
8d/J)	.	8b/)	8g#\	.
=2	=2	=2	=2	=2
8r	8r	(4.a/	2e\	.
(8A/L	4.A\	.	.	.
8c/	.	.	.	.
8B/J)	.	8g#/)	.	.
*v	*v	*	*	*
=3	=3	=3	=3
8r	(4.a/	2e\	.
(8A\L	.	.	.
8c\	.	.	.
8G#\J)	8b/)	.	.
*	*v	*v	*
=4	=4	=4
.	ddq/	.
*	*^	*
8r	(4cc/	4a\	.
(8A\L	.	.	.
8e\	4b/)	4g#\	.
8E\J)	.	.	.
=5	=5	=5	=5
8r	(4.dd/	2a\	.
(8F\L	.	.	.
8f\	.	.	.
8e\J)	8cc/)	.	.
=6	=6	=6	=6
8r	(4.ff/	2a\	.
(8D\L	.	.	.
8d\	.	.	.
8c\J)	8ee/)	.	.
=7	=7	=7	=7
8r	(4.dd/	4.g#\	.
(8BB\L	.	.	.
8B\	.	.	.
8A\J)	8cc/)	8a\	.
=8	=8	=8	=8
4E\ 4e\	(8cc/L	4g#\	.
.	8b/J	.	.
4E\	(8g#/L)	4r	.
.	8e/J	.	.
=9	=9	=9	=9
*^	*	*	*
8r	8r	(4.cc/)	4.a\	.
(8A/L	4.A\	.	.	.
8e/	.	.	.	.
8d/J)	.	8b/)	8g#\	.
=10	=10	=10	=10	=10
8r	8r	(4.a/	2e\	.
(8A/L	4.A\	.	.	.
8c/	.	.	.	.
8B/J)	.	8g#/)	.	.
*v	*v	*	*	*
=11	=11	=11	=11
8r	(4.a/	2e\	.
(8A\L	.	.	.
8c\	.	.	.
8G#\J)	8b/)	.	.
*	*v	*v	*
=12	=12	=12
.	ddq/	.
*	*^	*
8r	(4cc/	4a\	.
(8A\L	.	.	.
8e\	4b/)	4g#\	.
8E\J)	.	.	.
=13	=13	=13	=13
8r	(4.ff/	2a\	.
(8D\L	.	.	.
8d\	.	.	.
8c\J)	8ee/)	.	.
=14	=14	=14	=14
8r	(4.dd/	2a\	.
(8F\L	.	.	.
8f\	.	.	.
8e\J)	8cc/)	.	.
*	*v	*v	*
=15	=15	=15
4d\	(8cc/L	.
.	8b/)	.
4e\	8a/	.
.	8g#/J	.
=16	=16	=16
4f\	8a/	.
.	8cc#'\L	.
4r	8dd'\	.
.	8ee'\J	.
=17	=17	=17
*	*^	*
8r	(4.ff/	2a\	f
(8D\L	.	.	.
8d\	.	.	.
8cn\J)	8ee/)	.	.
*	*v	*v	*
=18	=18	=18
8r	4.dd\ (4.gg#\	.
(8BB\L	.	.
8B\	.	.
8A\J)	8ccn\ 8aa\)	.
=19	=19	=19
4d\	8cc\ (8ee\L	.
.	8b\ 8dd\)	.
4e\	8a\ 8cc\	.
.	8g#\ 8b\J	.
=20	=20	=20
4A\	8a/	<
.	8cc'\L	.
4r	8dd'\	.
.	8ee'\J	.
=21	=21	=21
*^	*	*
8r	8r	(4.ff\	p
(8A\L	4.A/	.	.
8c\	.	.	.
8f\J)	.	8aa\)	.
=22	=22	=22	=22
8r	8r	(8ff\L	.
(8G\L	4.G/	8ee\	.
8c\	.	8dd#\	.
8e\J)	.	8ee\J)	.
=23	=23	=23	=23
8r	8r	(4.aa\	.
(8F\L	4.F/	.	.
8A\	.	.	.
8c\J)	.	8ccc\)	.
=24	=24	=24	=24
8r	8r	(8aa\L	.
4.E/	(8E\L	8gg\	.
.	8G\	8ff#\	.
.	8c\J)	8gg\J)	.
*v	*v	*	*
*clefG2	*	*
=25	=25	=25
*^	*	*
.	.	(32ccq/	.
8r	8r	(4.ccc\)	.
4.e\	(8e/L	.	.
.	8g/	.	.
.	8cc/J)	8bb\)	.
*v	*v	*	*
=26	=26	=26
(8f/L	(8bb\L	<
8cc/	8aa\)	.
8e/	(8aa\	.
8cc/J)	8gg\J)	.
=27	=27	=27
(8d/L	(8gg\L	.
8b/	8ff\)	.
8c/	(8ff\	.
8cc/J)	8ee\J)	.
=28	=28	=28
(4g/	4cc\ (4ee\	f
4G/)	4b\ 4dd\)	.
=29	=29	=29
*^	*	*
8r	8r	4.cc\ (4.ee-\	pp
(8c/L	4.c\	.	.
8g/	.	.	.
8f/J)	.	8b\ 8dd\)	.
=30	=30	=30	=30
8r	8r	(4.cc\	.
(8c/L	4.c\	.	.
8e-/	.	.	.
8d/J)	.	8b\ 8dd\)	.
*v	*v	*	*
*clefF4	*	*
=31	=31	=31
*	*^	*
8r	(4.ee-/	2cc\	.
(8c\L	.	.	.
8e-\	.	.	.
8A-\J)	8ff/)	.	.
=32	=32	=32	=32
8r	(4ee-/	4cc\	.
(8G\L	.	.	.
8F#\	4dd/)	4b\	.
8G\J)	.	.	.
*	*v	*v	*
=33	=33	=33
*^	*	*
8r	8r	(4.dd\ 4.ff\	.
(8G/L	4.G\	.	.
8B/	.	.	.
8c/J)	.	8cc\ 8een\)	.
=34	=34	=34	=34
8r	8r	(4.b\ 4.dd\	.
(8G/L	4.G\	.	.
8f/	.	.	.
8en/J)	.	8cc\ 8ee\)	.
*v	*v	*	*
=35	=35	=35
8r	(4.dd\ 4.ff\	.
(8d\L	.	.
8B\	.	.
8G\J)	8ee\ 8gg\)	.
=36	=36	=36
8r	4dd\ (4ff\	.
(8B\L	.	.
8c\	4cc\ 4ee\)	.
8C\J)	.	.
=37	=37	=37
8E\L	(4.gg\ 4.ccc\	f
8e\	.	.
8g\	.	.
8d\J	8ff\ 8bb\)	.
=38	=38	=38
8C\L	(4.ee\ 4.aa\	.
8c\	.	.
8e\	.	.
8B\J	8dd\ 8gg\)	.
=39	=39	=39
8AA\L	4.cc\ (4.ff\	.
8A\	.	.
8c\	.	.
8G\J	8b\ 8ee\)	.
=40	=40	=40
8FF\L	4.a\ (4.dd\	.
8F\	.	.
8A\	.	.
8E\J	8g/ 8cc#/)	.
=41	=41	=41
4F\	(8dd\L	.
.	8a\	.
4C#/	8ee\	.
.	8a\J	.
=42	=42	=42
4D\	8ff\L	.
.	8aa\	.
8r	8ff\	.
8F\	8dd\J)	.
=43	=43	=43
*	*^	*
4G\	4ccn/	4e\ 4g\	.
4GG/	[4dd/	[4g\ [4b\	.
=44	=44	=44	=44
4.C/	(8dd/L]	4g\_ 4b\]	.
.	8dd/	.	.
.	8ee/J)	8g\] 8cc\	.
8r	8r	8gg'\	.
*	*v	*v	*
=45	=45	=45
8E\L	4.gg\ (4.ccc\	.
8e\	.	.
8g\	.	.
8d\J	8ff\ 8bb\)	.
=46	=46	=46
8C\L	4.ee\ (4.aa\	.
8c\	.	.
8e\	.	.
8B\J	8dd\ 8gg\)	.
=47	=47	=47
8AA\L	4.cc\ (4.ff\	.
8A\	.	.
8c\	.	.
8G\J	8b\ 8ee\)	.
=48	=48	=48
8FF\L	4.a\ (4.dd\	.
8F\	.	.
8A\	.	.
8E\J	8g\ 8cc#\)	.
=49	=49	=49
4F\	(8dd\L	.
.	8a\	.
4C#/	8ee\	.
.	8a\J	.
=50	=50	=50
(8D\L	8ff\L	.
8E\	8gg\	.
8F\	8aa\	.
8D\J	8ff\J)	.
=51	=51	=51
8G\L	4g\ 4ccn\ 4ee\	.
8F#\	.	.
8G\	4g\ 4b\ 4dd\	.
8GG\J)	.	.
=52	=52	=52
*	*^	*
8r	2cc#/	8r	.
(8B-\L	.	8g\L	.
8A\	.	8a\	.
8G\J	.	8b-\J	.
*	*v	*v	*
=53	=53	=53
4F\)	8dd\L	.
.	8a\	.
4C#/	8ee\	.
.	8a\J	.
=54	=54	=54
8D\L	(8ff\L	.
8E\	8gg\	.
8F\	8aa\	.
8D\J	8ff\J)	.
=55	=55	=55
8G\L	4g\ 4ccn\ 4ee\	.
8F#\	.	.
8G\	4g\ 4b\ 4dd\	.
8GG\J	.	.
=56	=56	=56
*	*^	*
8r	2cc#/	8r	.
8B-\L	.	(8g\L	.
(8A\	.	8a\	.
8G\J	.	8b-\J)	.
=57	=57	=57	=57
8F\L	8dd/L	2a\	.
8E\	8ee/	.	.
8D\	8ff/	.	.
8F\J)	8dd/J	.	.
=58	=58	=58	=58
8r	2dd#/	8r	.
(8cn\L	.	(8a\L	.
8Bn\	.	8bn\	.
8A\J	.	8cc\J)	.
=59	=59	=59	=59
8G\L	8ee/L	2b\	.
8F#\	8ff#/	.	.
8E\	8gg/	.	.
8G\J)	8ee/J	.	.
=60	=60	=60	=60
(8A\L	(4.ccc/	2ee\	f
8AA\	.	.	.
8A\	.	.	.
8B\J	8bb/)	.	>
=61	=61	=61	=61
8c\L	(4.aa/	2ee\	.
8C\	.	.	.
8c\	.	.	.
8B\J	8gg/)	.	.
*	*v	*v	*
=62	=62	=62
8A\L	4.cc\ (4.ff#\	.
8AA\	.	.
8A\	.	.
8A#\J	8cc#\ 8ee\)	.
=63	=63	=63
*	*^	*
4B\)	(8ee/L	4b\	.
.	8dd#/	.	.
4r	8cc#/	4r	.
.	8b/J)	.	.
=64	=64	=64	=64
(4.GG/ 4.G/	8r	8r	.
.	(8b/L	4.b\	p
.	8ee/	.	.
8FF#/) 8F#/	8dd#/J)	.	.
=65	=65	=65	=65
(4.EE/ 4.E/	8r	8r	.
.	(8b/L	4.b\	.
.	8gg/	.	.
8DD#/) 8D#/	8ff#/J)	.	.
=66	=66	=66	=66
(4.EE/ 4.E/	8r	8r	.
.	(8b/L	4.b\	.
.	8gg/	.	.
8FF#/) 8F#/	8aa/J)	.	.
=67	=67	=67	=67
(4EE/ 4E/	8r	8r	.
.	(8b/L	4.b\	.
4DD#/) 4D#/	8gg/	.	.
.	8ff#/J)	.	.
=68	=68	=68	=68
(4.FF#/ 4.F#/	8r	8r	.
.	(8b/L	4.b\	.
.	8aa/	.	.
8EE/) 8E/	8gg/J)	.	.
=69	=69	=69	=69
(4.DD#/ 4.D#/	8r	8r	.
.	(8b/L	4.b\	.
.	8ff#/	.	.
8EE/) 8E/	8gg/J)	.	.
=70	=70	=70	=70
(4.FF#/ 4.F#/	8r	8r	.
.	(8b/L	4.b\	.
.	8aa/	.	.
8GG/) 8G/	8bb/J)	.	.
=71	=71	=71	=71
(4FF#/ 4F#/	8r	8r	.
.	(8b/L	4.b\	.
4EE/) 4E/	8aa/	.	.
.	8gg/J)	.	.
*	*v	*v	*
=72	=72	=72
(4.G\ 4.B\	8b\L	f
.	8bb\	.
.	8eee\	.
8F#\ 8A\)	8dddn\J	.
=73	=73	=73
(4.E\ 4.G\	8g\L	.
.	8gg\	.
.	8ccc\	.
8Dn\ 8F#\)	8bb\J	.
=74	=74	=74
(4.C/ 4.E/	8e\L	.
.	8ee\	.
.	8aa\	.
8BB/ 8D/)	8gg\J	.
=75	=75	=75
(4.AA/ 4.C/	8c\L	.
.	8cc\	.
.	8ffn\	.
8GG/ 8BB/)	8ee\J	.
=76	=76	=76
4FF#/ 4AA/	8dd#\L	.
.	8ff#\	.
(4DD#/ [4BB/	8b\	.
.	8aa\J	.
=77	=77	=77
4EE/) 4BB/]	8gg\L	.
.	8ee\	.
4AA/	8ccc\	.
.	8aa\J	.
=78	=78	=78
4BB/	8gg\L	.
.	8bb\	.
4BBB/	8dd#\	.
.	8ff#\J	.
=79	=79	=79
4EE/	8ee\L	.
.	8b\	.
4r	8g\	.
.	8e\J	.
=80	=80	=80
4.G\ (4.B\	8b\L	.
.	8bb\	.
.	8eee\	.
8F#\ 8A\)	8ddd#\J	.
=81	=81	=81
4.E\ (4.G\	8g\L	.
.	8gg\	.
.	8ccc\	.
8Dn\ 8F#\)	8bb\J	.
=82	=82	=82
(4.C/ 4.E/	8e\L	.
.	8ee\	.
.	8aa\	.
8BB/) 8D/	8gg\J	.
=83	=83	=83
(4.AA/ 4.C/	8c\L	.
.	8cc\	.
.	8ffn\	.
8GG/) 8BB/	8ee\J	.
=84	=84	=84
4FF#/ 4AA/	8dd#\L	.
.	8ff#\	.
(4DD#/ [4BB/	8b\	.
.	8aa\J	.
=85	=85	=85
4EE/) 4BB/]	8gg\L	.
.	8ee\	.
4AA/	8ccc\	.
.	8aa\J	.
=86	=86	=86
4BB/	8gg\L	.
.	8bb\	.
4BBB/	8dd#\	.
.	8ff#\J	.
=87	=87	=87
*	*^	*
8r	2ee/	(4.ee\	.
8E\L	.	.	.
(8F#\	.	.	.
8G#\J	.	8ddn\	.
=88	=88	=88	=88
8A\L	2ee/	8cc\L	.
8B\	.	8b\	.
8c\	.	8a\	.
8A\J)	.	8cc\J)	.
=89	=89	=89	=89
8r	[2ffn/	(4.dd\	.
(8D\L	.	.	.
8E\	.	.	.
8Fn\J	.	8cc\	.
=90	=90	=90	=90
8Gn\L	2ff/]	8b\L	.
8A\	.	8a\	.
8B\	.	8g\)	.
8G\J)	.	8b\J	.
=91	=91	=91	=91
8r	[2ee/	(4.cc\	.
(8C\L	.	.	.
8D\	.	.	.
8E\J	.	8b\	.
=92	=92	=92	=92
8F\L	2ee/]	8a\L	.
8G\	.	8g\	.
8A\	.	8f\	.
8F\J)	.	8a\J)	.
=93	=93	=93	=93
8r	[2dd/	(4.b\	.
(8BB/L	.	.	.
8C/	.	.	.
8D/J	.	8a\	.
=94	=94	=94	=94
8E\L	2dd/]	8g#\L	.
8F#\	.	8a\	.
8G#\	.	8b\	.
8E\J)	.	8g#\J)	.
=95	=95	=95	=95
4A\	8cc/L	4r	.
.	8a/J	.	.
8r	[4ee/	8r	.
8Gn\	.	8b\	.
=96	=96	=96	=96
4.Fn\	8ee/L]	4.a\	.
.	8ff/J	.	.
.	[4dd/	.	.
8D\	.	8b\	.
=97	=97	=97	=97
4.E\	8dd/L]	4.g#\	.
.	8ee/J	.	.
.	[4cc/	.	.
8C/	.	8a\	.
=98	=98	=98	=98
4.D\	(8cc/L]	2f#\	.
.	8dd/	.	.
.	8b/	.	.
(8D#\	8a/J)	.	.
=99	=99	=99	=99
2E\)	(8g#/L	8e\	.
.	8b/	8r	.
.	8ee/	4r	.
.	8g#/J)	.	.
*	*v	*v	*
=100	=100	=100
2F\ (2A\	(8a\L	.
.	8ee\	.
.	8dd#\	.
.	8a\J	.
=101	=101	=101
2E\ 2B\)	8g#\L	.
.	8b\	.
.	8ee\	.
.	8g#\J)	.
=102	=102	=102
2F\ (2A\	(8a\L	.
.	8ee\	.
.	8dd#\	.
.	8a\J	.
=103	=103	=103
2E\ 2B\)	8g#\L	.
.	8b\	.
.	8ee\	.
.	8g#\J)	.
=104	=104	=104
2F\ (2A\	(8a\L	.
.	8ee\	.
.	8dd#\	.
.	8a\J	.
=105	=105	=105
4E\ 4B\)	8g#\L	.
.	8b\	.
4r	8ee\	.
.	8dd#\J	.
=106	=106	=106
2r	8ddn\L	.
.	8cc#\	.
.	8dd\	.
.	8b\J)	.
=107	=107	=107
*^	*^	*
8r	8r	(4.ccn/	4.a\	p
(8A/L	4.A\	.	.	.
8e/	.	.	.	.
8d/J)	.	8b/)	8g#\	.
=108	=108	=108	=108	=108
8r	8r	(4.a/	2e\	.
(8A/L	4.A\	.	.	.
8c/	.	.	.	.
8B/J)	.	8g#/)	.	.
*v	*v	*	*	*
=109	=109	=109	=109
8r	(4.a/	2e\	.
(8A\L	.	.	.
8c\	.	.	.
8G#\J)	8b/)	.	.
*	*v	*v	*
=110	=110	=110
.	ddq/	.
*	*^	*
8r	(4cc/	4a\	.
(8A\L	.	.	.
8e\	4b/)	4g#\	.
8E\J)	.	.	.
=111	=111	=111	=111
8r	(4.dd/	2a\	.
(8F\L	.	.	.
8f\	.	.	.
8e\J)	8cc/)	.	.
=112	=112	=112	=112
8r	(4.ff/	2a\	.
(8D\L	.	.	.
8d\	.	.	.
8c\J)	8ee/)	.	.
=113	=113	=113	=113
8r	(4.dd/	4.g#\	.
(8BB\L	.	.	.
8B\	.	.	.
8A\J)	8cc/)	8a\	.
=114	=114	=114	=114
4E\ 4e\	(8cc/L	4g#\	.
.	8b/J	.	.
4E\	(8g#/L)	4r	.
.	8e/J	.	.
=115	=115	=115	=115
*^	*	*	*
8r	8r	(4.cc/)	4.a\	.
(8A/L	4.A\	.	.	.
8e/	.	.	.	.
8d/J)	.	8b/)	8g#\	.
=116	=116	=116	=116	=116
8r	8r	(4.a/	2e\	.
8A/L	4.A\	.	.	.
8c/	.	.	.	.
8B/J	.	8g#/)	.	.
*v	*v	*	*	*
=117	=117	=117	=117
8r	(4.a/	2e\	.
(8A\L	.	.	.
8c\	.	.	.
8G#\J)	8b/)	.	.
*	*v	*v	*
=118	=118	=118
.	(ddq/	.
*	*^	*
8r	(4cc/)	4a\	.
(8A\L	.	.	.
8e\	4b/)	4g#\	.
8E\J)	.	.	.
=119	=119	=119	=119
8r	(4.ff/	2a\	.
(8D\L	.	.	.
8d\	.	.	.
8c\J)	8ee/)	.	.
=120	=120	=120	=120
8r	(4.dd/	2a\	.
(8F\L	.	.	.
8f\	.	.	.
8e\J)	8cc/)	.	.
*	*v	*v	*
=121	=121	=121
4d\	(8cc/L	.
.	8b/)	.
4e\	8a/	.
.	8g#/J	.
=122	=122	=122
4f\	8a/	.
.	8cc#'\L	<
4r	8dd'\	.
.	8ee'\J	.
=123	=123	=123
*	*^	*
8r	(4.ff/	2a\	f
(8D\L	.	.	.
8d\	.	.	.
8cn\J)	8ee/)	.	.
=124	=124	=124	=124
8r	(4.gg#/	4.dd\	.
(8BB\L	.	.	.
8B\	.	.	.
8A\J)	8aa/)	8cc\	.
=125	=125	=125	=125
8r	(4.bb/	4.ee\	.
(8GG#\L	.	.	.
8G#\	.	.	.
8F#\J)	8ccc/)	8aa\	.
=126	=126	=126	=126
8E/L	2ddd/	(4gg#\	.
8EE/	.	.	.
8FF#/	.	8aa\L	.
8GG#/J	.	8bb\J)	.
*	*v	*v	*
=127	=127	=127
8AA\L	4.aa\ (4.ccc\	.
8A\	.	.
8c\	.	.
8e\J	8ggn\ 8bb\)	.
=128	=128	=128
8FFn\L	4.ffn\ (4.aa\	.
8F\	.	.
8A\	.	.
8c\J	8ee\ 8gg\)	.
=129	=129	=129
8DD/L	4.dd\ (4.ff\	.
8D/	.	.
8F/	.	.
8A/J	8cc\ 8ee\)	.
=130	=130	=130
8BBB/L	4.b\ (4.dd\	.
8BB/	.	.
8D/	.	.
8F/J	8cc\)	.
=131	=131	=131
8DD/L	4f/ 4g#/ 4b/	.
8D/	.	.
8F/	8dd'\L	.
8D/J	8ff'\J	.
=132	=132	=132
*	*^	*
4C/	(8ff/L	4a\	.
.	8ee/)	.	.
4F\	8dd'/	4r	.
.	8cc'/J	.	.
*	*v	*v	*
=133	=133	=133
4D\	(8cc/L	.
.	8b/)	.
4E\	8a'/	.
.	8g#'/J	.
=134	=134	=134
4AA/	(8a\L	.
.	8cc\	.
4r	8ee\J)	.
.	8gg#\	.
=135	=135	=135
8AA\L	4.aa\ (4.ccc\	.
8A\	.	.
8c\	.	.
8e\J	8ggn\ 8bb\)	.
=136	=136	=136
8FF\L	4.ff\ (4.aa\	.
8F\	.	.
8A\	.	.
8c\J	8ee\ 8gg\)	.
=137	=137	=137
8DD/L	4.dd\ (4.ff\	.
8D/	.	.
8F/	.	.
8A/J	8cc\ 8ee\)	.
=138	=138	=138
8BBB/L	4.b\ (4.dd\	.
8BB/	.	.
8D/	.	.
8F/J	8a\ 8cc\)	.
=139	=139	=139
8DD/L	4f/ 4g#/ 4b/	.
8D/	.	.
8F/	8dd'\L	.
8D/J	8ff'\J	.
=140	=140	=140
*	*^	*
4C/	(8ff/L	4a\	.
.	8ee/)	.	.
4FF/ 4F/	8dd'/	4r	.
.	8cc'/J	.	.
*	*v	*v	*
=141	=141	=141
4DD/ 4D/	(8cc/L	.
.	8b/)	.
4EE/ 4E/	8a'/	.
.	8g#'/J	.
=142	=142	=142
4AAA/ 4AA/	8a'/L	.
.	8e'/	.
4r	8a'/	.
.	8b'/J	.
=143!|:	=143!|:	=143|!:
*>B	*>B	*>B
*k[f#c#g#]	*k[f#c#g#]	*k[f#c#g#]
*^	*	*
(8A/L	2A\	4.a\ (4.cc#\	p
8c#/	.	.	.
8e/	.	.	.
8c#/J)	.	8cc#\ 8ee\)	.
=144	=144	=144	=144
(8A/L	2A\	8cc#\ (8ee\L	.
8d/	.	8b\ 8dd\J)	.
8f#/	.	8b\ 8dd\L	.
8d/J)	.	8a\ 8cc#\J	.
=145	=145	=145	=145
(8A/L	2A\	(8a/ 8cc#/L	.
8B/	.	8g#/) 8b/J	.
8d/	.	8g#/ 8b/L	.
8B/J)	.	8b/ 8dd/J	.
=146	=146	=146	=146
(8A/L	2A\	8b\ (8dd\L	.
8c#/	.	8a\ 8cc#\J)	.
8e/	.	4a\ 4cc#\	.
8c#/J)	.	.	.
=147	=147	=147	=147
(8A/L	2A\	4.cc#\ (4.aa\	.
8c#/	.	.	.
8e/	.	.	.
8c#/J)	.	8ee\ 8gg#\)	.
=148	=148	=148	=148
(8A/L	2A\	8ee\ (8gg#\L	.
8d/	.	8dd\ 8ff#\J)	.
(8f#/)	.	8dd\ 8ff#\L	.
8e/J)	.	8cc#\ 8ee\J	.
=149	=149	=149	=149
(8A/L	2A\	8cc#\ (8ee\L	.
8B/	.	8b\ 8dd\J)	.
8d/	.	8b\ 8dd\L	.
8c#/J)	.	8a\ 8cc#\J	.
=150	=150	=150	=150
(8d/L	2A\	(8a/ 8cc#/L	.
8e/	.	8g#/) 8b/J	.
8c#/	.	4a/	.
8A/J)	.	.	.
=151	=151	=151	=151
(8A/L	2A\	4.a\ (4.cc#\	.
8c#/	.	.	.
8e/	.	.	.
8c#/J)	.	8cc#\ 8ee\)	.
=152	=152	=152	=152
(8A/L	2A\	8cc#\ (8ee\L	.
8d/	.	8b\ 8dd\J)	.
8f#/	.	8b\ 8dd\L	.
8d/J)	.	8a\ 8cc#\J	.
=153	=153	=153	=153
(8A/L	2A\	(8a/ 8cc#/L	.
8B/	.	8g#/) 8b/J	.
8d/	.	8g#/ 8b/L	.
8B/J)	.	8b/ 8dd/J	.
=154	=154	=154	=154
(8A/L	2A\	8b\ (8dd\L	.
8c#/	.	8a\ 8cc#\J)	.
8e/	.	4a\ 4cc#\	.
8c#/J)	.	.	.
=155	=155	=155	=155
*	*	*^	*
(8B/L	2B\	(8cc#/	4.a\	.
8d#/	.	4b/)	.	.
8f#/	.	.	.	.
8d#/J)	.	8b/	8a\	.
*v	*v	*	*	*
=156	=156	=156	=156
4e\	(8b/L	4g#\	<
.	8ee/J)	.	.
4A\	(8cc#/L	4a'\	.
.	8ff#/J)	.	.
=157	=157	=157	=157
*^	*	*	*
4g#/	2B\	(4ee/	2b\	f
4f#/	.	4dd#/)	.	.
*v	*v	*	*	*
*	*v	*v	*
=158	=158	=158
.	16cc#q/LL	.
.	16dd#q/JJ	.
4e\	4ee\	.
4E\	4r	.
=159:|!|:	=159:|!|:	=159:|!|:
*>C	*>C	*>C
2r	(8ee\L	p
.	8dd#\	.
.	8ee\	.
.	8ff#\J	.
=160	=160	=160
2r	8ee\L	.
.	8ddn\	.
.	8cc#\	.
.	8b\J)	.
*clefG2	*	*
=161	=161	=161
4e/ 4gn/	(8a#\L	.
.	8b\	.
4e/ 4g/	8cc#\	.
.	8a#\J	.
=162	=162	=162
4d/ 4f#/	8b\L	.
.	8a#\	.
4r	8b\	.
.	8cc#\J)	.
=163	=163	=163
2r	(8dd\L	.
.	8cc#\	.
.	8dd\	.
.	8ee\J	.
=164	=164	=164
2r	8dd\L	.
.	8ccn\	.
.	8b\	.
.	8an\J)	.
=165	=165	=165
4d/ 4fn/	8g#/L	.
.	(8a/	.
4d/ 4f/	8b/	.
.	8g#/J	.
=166	=166	=166
4c#/ 4e/	8a\L	.
.	8cc#\	.
4r	8ee\	.
.	8cc#\J)	.
*clefF4	*	*
=167	=167	=167
*^	*	*
(8A/L	2A\	4.cc#\ (4.aa\	.
8c#/	.	.	.
8e/	.	.	.
8c#/J)	.	8ee\ 8gg#\)	.
=168	=168	=168	=168
(8A/L	2A\	8ee\ (8gg#\L	.
8d/	.	8dd\ 8ff#\J	.
8f#/	.	8dd\ 8ff#\L)	.
8e/J)	.	8cc#\ 8ee\J	.
=169	=169	=169	=169
(8A/L	2A\	8cc#\ (8ee\L	.
8B/	.	8b\ 8dd\J)	.
8d/	.	8b\ 8dd\L	.
8c#/J)	.	8a\ 8cc#\J	.
=170	=170	=170	=170
(8d/L	2A\	(8a/ 8cc#/L	.
8e/	.	8g#/) 8b/J	.
8c#/	.	4a/	.
8A/J)	.	.	.
=171	=171	=171	=171
*	*	*^	*
(8d/L	4A\	(4.b/	2g#\	.
8e/	.	.	.	.
8d/	4A\	.	.	.
8e/J)	.	8cc#/)	.	.
*	*	*v	*v	*
=172	=172	=172	=172
(8c#/L	2A\	(8b/L	.
8e/	.	8a/J)	.
8c#/	.	4a/	.
8e/J)	.	.	.
=173	=173	=173	=173
*	*	*^	*
(8d/L	4A\	(4.b/	2g#\	.
8e/	.	.	.	.
8d/	4A\	.	.	.
8e/J)	.	8cc#/)	.	.
*	*	*v	*v	*
=174	=174	=174	=174
*v	*v	*	*
*>C1	*>C1	*>C1
*^	*	*
4c#/	4A\	4a/	.
4AA/	4r	4r	.
=175:|!	=175:|!	=175:|!	=175:|!
*v	*v	*	*
*>C2	*>C2	*>C2
*^	*	*
4c#/	4A\	8a/L	.
.	.	8e/	.
4r	4r	8a/	.
.	.	8b/J	.
*v	*v	*	*
=176||	=176||	=176||
*k[]	*k[]	*k[]
*>D	*>D	*>D
*^	*^	*
8r	8r	(4.cc/	4.a\	p
(8A/L	4.A\	.	.	.
8e/	.	.	.	.
8d/J)	.	8b/)	8g#\	.
=177	=177	=177	=177	=177
8r	8r	(4.a/	2e\	.
(8A/L	4.A\	.	.	.
8c/	.	.	.	.
8B/J)	.	8g#/)	.	.
*v	*v	*	*	*
=178	=178	=178	=178
8r	(4.a/	2e\	.
(8A\L	.	.	.
8c\	.	.	.
8G#\J)	8b/)	.	.
*	*v	*v	*
=179	=179	=179
.	(ddq/	.
*	*^	*
8r	(4cc/)	4a\	.
(8A\L	.	.	.
8e\	4b/)	4g#\	.
8E\J)	.	.	.
=180	=180	=180	=180
8r	(4.dd/	2a\	.
(8F\L	.	.	.
8f\	.	.	.
8e\J)	8cc/)	.	.
=181	=181	=181	=181
8r	(4.ff/	2a\	.
(8D\L	.	.	.
8d\	.	.	.
8c\J)	8ee/)	.	.
=182	=182	=182	=182
8r	(4.dd/	4.g#\	.
(8BB\L	.	.	.
8B\	.	.	.
8A\J)	8cc/)	8a\	.
=183	=183	=183	=183
4E\ 4e\	(8cc/L	4g#\	.
.	8b/J	.	.
4E\	(8g#/L)	4r	.
.	8e/J)	.	.
=184	=184	=184	=184
*^	*	*	*
8r	8r	(4.cc/	4.a\	.
(8A/L	4.A\	.	.	.
8e/	.	.	.	.
8d/J)	.	8b/)	8g#\	.
=185	=185	=185	=185	=185
8r	8r	(4.a/	2e\	.
(8A/L	4.A\	.	.	.
8c/	.	.	.	.
8B/J)	.	8g#/)	.	.
*v	*v	*	*	*
=186	=186	=186	=186
8r	(4.a/	2e\	.
(8A\L	.	.	.
8c\	.	.	.
8G#\J)	8b/)	.	.
*	*v	*v	*
=187	=187	=187
.	ddq/	.
*	*^	*
8r	(4cc/	4a\	.
(8A\L	.	.	.
8e\	4b/)	4g#\	.
8E\J)	.	.	.
=188	=188	=188	=188
8r	(4.ff/	2a\	.
(8D\L	.	.	.
8d\	.	.	.
8c\J)	8ee/)	.	.
=189	=189	=189	=189
8r	(4.dd/	2a\	.
(8F\L	.	.	.
8f\	.	.	.
8e\J)	8cc/)	.	.
*	*v	*v	*
=190	=190	=190
4d\	(8cc/L	.
.	8b/)	.
4e\	8a/	.
.	8g#/J	.
=191	=191	=191
4f\	8a/	.
.	8cc#'\L	.
4r	8dd'\	.
.	8ee'\J	.
=192	=192	=192
*	*^	*
8r	(4.ff/	2a\	f
(8D\L	.	.	.
8d\	.	.	.
8cn\J)	8ee/)	.	.
=193	=193	=193	=193
8r	(4.gg#/	4.dd\	.
(8BB\L	.	.	.
8B\	.	.	.
8A\J)	8aa/)	8ccn\	.
*	*v	*v	*
=194	=194	=194
4d\	8cc\ (8ee\L	.
.	8b\ 8dd\)	.
4e\	8a\ 8cc\	.
.	8g#\ 8b\J	.
=195	=195	=195
4A\	8a'\L	.
.	8cc'\	.
4r	8ee'\	.
.	8aa'\J	.
*clefG2	*	*
=196	=196	=196
8r	(4.bb-\	p
(8c#/L	.	.
8gn/	.	.
8b-/J)	8ggn\)	.
=197	=197	=197
8r	(8gg\L	.
(8d/L	8ff\)	.
8f/	8ee'\	.
8a/J)	8dd'\J	.
=198	=198	=198
8r	(4.ccc\	.
(8d#/L	.	.
8a/	.	.
8ccn/J)	8aa\)	.
=199	=199	=199
8r	(8aa\L	.
(8e/L	8gg#\)	.
8g#/	8ff#'\	.
8b/J)	8ee'\J	.
*clefF4	*	*
=200	=200	=200
*	*^	*
8r	2ddd/	(4.aa\	f
(8F\L	.	.	.
8f\	.	.	.
8e\J)	.	8gg#\)	.
=201	=201	=201	=201
8r	2ddd/	(4.aa\	.
(8F\L	.	.	.
8f\	.	.	.
8e\J)	.	8gg#\)	.
=202	=202	=202	=202
8r	2ddd/	(4.aa\	.
(8F\L	.	.	.
8f\	.	.	.
8e\J)	.	8gg#\)	.
=203	=203	=203	=203
8r	2ddd/	(4.aa\	.
(8F\L	.	.	.
8f\	.	.	.
8e\J)	.	8gg#\)	.
=204	=204	=204	=204
(4.CC/ 4.C/	8r	8r	.
.	(8e/L	4.e\	p
.	8ee/	.	.
8BBB/) 8BB/	8dd/J)	.	.
=205	=205	=205	=205
(4.AAA/ 4.AA/	8r	8r	.
.	(8e/L	4.e\	.
.	8cc/	.	.
8BBB/ 8BB/)	8b/J)	.	.
=206	=206	=206	=206
(4.CC/ 4.C/	8r	8r	.
.	(8e/L	4.e\	.
.	8a/	.	.
8DD/ 8D/)	8b/J)	.	.
=207	=207	=207	=207
(4CC/ 4C/	8r	8r	.
.	(8e/L	4.e\	.
4BBB/ 4BB/)	8a/	.	.
.	8g#/J)	.	.
*	*v	*v	*
=208	=208	=208
*^	*	*
8r	8r	(4.d/ 4.dd/	.
4.E/	(8E\L	.	.
.	8B\	.	.
.	8A\J)	8c/) 8cc/	.
=209	=209	=209	=209
8r	8r	(4.B/ 4.b/	.
4.E/	(8E\L	.	.
.	8G#\	.	.
.	8A\J)	8c/) 8cc/	.
=210	=210	=210	=210
8r	8r	(4.d/ 4.dd/	.
(8E\L	4.E/	.	.
8B\	.	.	.
8c\J)	.	8e/) 8ee/	.
=211	=211	=211	=211
8r	8r	(4d/ 4dd/	.
(8E\L	4.E/	.	.
8B\	.	4c/) 4cc/	.
8A\J)	.	.	.
*v	*v	*	*
=212	=212	=212
8C\L	4.ee\ (4.aa\	f
8c\	.	.
8e\	.	.
8B\J	8dd\ 8ggn\)	.
=213	=213	=213
8AA\L	4.cc\ (4.ff\	.
8A\	.	.
8c\	.	.
8G\J	8b\ 8ee\)	.
=214	=214	=214
8FF/L	4.a\ (4.dd\	.
8F/	.	.
8A/	.	.
8E/J	8g/ 8cc/)	.
=215	=215	=215
8DD/L	(4.f/ 4.b/	.
8D/	.	.
8F/	.	.
8C/J	8e/) 8a/	.
=216	=216	=216
4BB/	(8g#/L	.
.	8b/	.
4GG#/	8e/	.
.	8dd/J	.
=217	=217	=217
4AA/	8cc\L	.
.	8a\	.
4D\	8ff\	.
.	8dd\J)	.
=218	=218	=218
4E\	4e/ 4a/ 4cc/	.
4EE/	4e/ 4g#/ 4b/	.
=219	=219	=219
8AAA/L	4a/	.
8CC/	.	.
8EE/	4r	.
8AA/J	.	.
=220	=220	=220
(4.C/ 4.E/	8e\L	.
.	8ee\	.
.	8aa\	.
8BB/) 8D/	8ggn\J	.
=221	=221	=221
(4.AA/ 4.C/	8c/L	.
.	8cc/	.
.	8ff/	.
8GG/) 8BB/	8ee/J	.
=222	=222	=222
(4.FF/ 4.AA/	8A/L	.
.	8a/	.
.	8dd/	.
8EE/) 8GG/	8cc/J	.
=223	=223	=223
(4.DD/ 4.FF/	8F/L	.
.	8f/	.
.	8b/	.
8CC/) 8EE/	8a/J	.
=224	=224	=224
4BBB/ 4DD/	8g#/L	.
.	8b/	.
(4GG#/ [4E/	8e/	.
.	8dd/J	.
=225	=225	=225
4AA/) 4E/]	8cc\L	.
.	8a\	.
4D\	8ff\	.
.	8dd\J	.
=226	=226	=226
(8E/L	4e/ 4a/ 4cc/	.
8D#/	.	.
8E/	4e/ 4g#/ 4b/	.
8EE/J)	.	.
=227	=227	=227
*	*^	*
8r	2cc#/	8r	.
(8B-\L	.	(8gn\L	.
8A\	.	8a\	.
8Gn\J	.	8b-\J)	.
=228	=228	=228	=228
8F\L	8dd/L	2a\	.
8E\	8ee/	.	.
8D\	8ff/	.	.
8F\J)	8dd/J	.	.
=229	=229	=229	=229
8r	2dd#/	8r	.
(8cn\L	.	8a\L	.
8Bn\	.	8bn\	.
8A\J	.	8ccn\J	.
=230	=230	=230	=230
8G#\L	8ee/L	2b\	.
8F#\	8ff#/	.	.
8E\	8gg#/	.	.
8G#\J)	8ee/J	.	.
=231	=231	=231	=231
8r	2gg#/	8r	.
(8fn\L	.	(8dd\L	.
8e\	.	8ee\	.
8d\J	.	8ffn\J)	.
=232	=232	=232	=232
4c\)	8aa/L	8ee\	.
.	8ee/J	8r	.
4d\	4r	8ff\L	.
.	.	8dd\J	.
*	*v	*v	*
=233	=233	=233
4e\	8cc\L	.
.	8a\	.
4E\	8ee\	.
.	8g#\J	.
=234	=234	=234
*	*^	*
2r	(4.ccc/	8r	p
.	.	(8ee\L	.
.	.	8aa\	.
.	8bb/)	8gg\J)	.
=235	=235	=235	=235
2r	(4.aa/	8r	.
.	.	(8cc\L	.
.	.	8ff\	.
.	8ggn/)	8ee\J)	.
=236	=236	=236	=236
2r	(4.ff/	8r	.
.	.	(8a\L	.
.	.	8dd\	.
.	8ee/)	8cc'\J)	.
=237	=237	=237	=237
2r	(4.dd/	8r	.
.	.	(8f\L	.
.	.	8b\	.
.	8cc/)	8a\J)	.
*	*v	*v	*
=238	=238	=238
4r	4b\	.
4D\ 4F\ 4B\	4f\ 4b\ 4ff\	f
=239	=239	=239
4E\ 4A\ 4c\	4a\ 4cc\ 4ee\	.
4EE/ 4E/	4B/ 4e/ 4g#/	.
=240	=240	=240
*	*^	*
2r	(4.ccc/	8r	p
.	.	(8ee\L	.
.	.	8aa\	.
.	8bb/)	8ggn\J)	.
=241	=241	=241	=241
2r	(4.aa/	8r	.
.	.	(8cc\L	.
.	.	8ff\	.
.	8ggn/)	8ee\J)	.
=242	=242	=242	=242
2r	(4.ff/	8r	.
.	.	(8a\L	.
.	.	8dd\	.
.	8ee/)	8cc\J)	.
=243	=243	=243	=243
2r	(4.dd/	8r	.
.	.	(8f\L	.
.	.	8b\	.
.	8cc/)	8a\J)	.
*	*v	*v	*
=244	=244	=244
4r	4b\	.
4D\ 4F\ 4B\	4b\ 4ff\	f
=245	=245	=245
4E\ 4A\ 4c\	4a\ 4cc\ 4ee\	.
4EE/ 4E/	4B/ 4e/ 4g#/	.
=246	=246	=246
4AA/	8a/L	.
.	8e/	.
4r	8cc/	.
.	8a/J	.
=247	=247	=247
2r	8ee\L	.
.	8cc\	.
.	8b\	.
.	8g#\J	.
=248	=248	=248
8AA/L	8a/L	.
8EE/	8e/ 8ee/	.
8C/	8e/ 8ee/	.
8AA/J	8e/ 8ee/J	.
=249	=249	=249
8E/L	8e/ 8ee/L	.
8C/	8e/ 8ee/	.
8BB/	8e/ 8ee/	.
8GG#/J	8e/ 8ee/J	.
=250	=250	=250
8AA/L	4e/ 4ee/	.
8EE/ 8E/	.	.
8EE/ 8E/	4cc\ 4ee\ 4aa\	.
8EE/ 8E/J	.	.
=251	=251	=251
8EE/ 8E/L	4ee\ 4aa\ 4ccc\	.
8EE/ 8E/	.	.
8EE/ 8E/	4ee\ 4gg#\ 4bb\	.
8EE/ 8E/J	.	.
=252	=252	=252
4AA\ 4A\	4aa\	.
4AAA/ 4AA/	4c/ 4e/ 4a/	.
=253	=253	=253
4AAA/ 4AA/	4c/ 4e/ 4a/	.
4r	4r	.
==	==	==
*-	*-	*-
!!!SMS: Alte Mozart-Ausgabe, Band 20, Breitkopf &amp; H&auml;rtel 1877-1883.
!!!ONB: Stich und Druck von Breitkopf &amp; H&auml;rtel in Leipzig
!!!ONB: Ausgegeben 1878
!!!ENC: Craig Stuart Sapp
!!!END: 2009/09/28/
!!!title: @{OTL}, K 310 (300d), @{OMV}
!!!hum2abc: --no-tempo -s 0.675 --spacing 1.8 -p "%gracespace  0 6.0 12.0"
